packages/core/src/svgs/tokens/mono/HYDRA.svg

<svg width="24" height="24" viewBox="0 0 24 24" fill="none" xmlns="http://www.w3.org/2000/svg">
<path d="M14.0668 6.05556H14.478L14.5169 5.46671H14.0668V6.05556ZM14.478 4.67787L14.0224 4.79453L14.0668 5.22783H14.5612L14.478 4.67231V4.67787ZM14.3557 4.40011L14.0224 3.92793L13.6558 4.20568L13.9446 4.59454L14.3557 4.40011ZM13.8169 3.77238L13.2835 3.45573L13.0392 3.73349L13.4891 4.01125L13.8224 3.77238H13.8169ZM12.3781 3.5335L12.8781 3.65572L13.0781 3.37796L12.5447 3.2613L12.3781 3.53906V3.5335ZM12.1337 3.50018L12.2559 3.22241H11.5615V3.50018H12.1337ZM9.93373 17.9436H9.52271L9.48382 18.5325H9.93373V17.9436ZM9.52271 19.3213L9.97819 19.2047L9.93373 18.7713H9.44493L9.52271 19.3269V19.3213ZM9.64494 19.5991L9.97819 20.0713L10.3449 19.7935L10.056 19.4047L9.64494 19.5991ZM10.1838 20.2269L10.717 20.5435L10.9615 20.2657L10.5116 19.988L10.1782 20.2269H10.1838ZM11.6226 20.4658L11.1226 20.3435L10.9226 20.6213L11.4559 20.738L11.6226 20.4602V20.4658ZM11.867 20.4991L11.7448 20.7768H12.4447V20.4991H11.867ZM18.4109 10.7552L18.6165 11.0942L19.1721 10.833L18.9443 10.4608L18.4109 10.7552ZM19.1554 10.3442L19.4054 10.7496L19.8609 10.4108L19.5276 10.0941L19.1554 10.3442ZM20.3109 9.66081L19.8776 9.49425L19.6664 9.92757L20.0497 10.1663L20.3109 9.66081ZM20.3553 9.4109L20.372 8.81093L19.9998 8.74426L19.9775 9.25534L20.3553 9.4109ZM19.8497 8.09986L19.9887 8.5665L20.3387 8.59983L20.1831 8.09986H19.8497ZM19.4776 7.39435L19.7609 7.8721L20.072 7.83877L19.7276 7.26104L19.4776 7.39991V7.39435ZM5.58964 13.2439L5.38965 12.9051L4.83414 13.1662L5.05635 13.5384L5.58964 13.2439ZM4.84524 13.6551L4.60082 13.2495L4.13974 13.5883L4.47305 13.905L4.84524 13.6551ZM3.68978 14.3383L4.12307 14.505L4.33418 14.0717L3.95086 13.8328L3.68978 14.3383ZM3.65089 14.5884L3.62866 15.1882L4.00087 15.255L4.02863 14.7439L3.65089 14.5884ZM4.15085 15.8993L4.01198 15.4327L3.662 15.3994L3.81755 15.8993H4.15085ZM4.52305 16.5993L4.23973 16.1215L3.92864 16.1604L4.27307 16.7381L4.52305 16.5993Z" fill="white"/>
<path d="M21.6551 13.0111C21.6551 13.0111 21.7107 12.5389 21.7829 11.8C21.8165 11.6106 21.7767 11.4154 21.6713 11.2544C21.5661 11.0935 21.4033 10.9786 21.2162 10.9335L20.994 11.1335C21.0441 11.1001 21.1219 11.0668 21.1496 11.239C21.1885 11.4889 20.8607 12.1723 20.8607 12.1723L20.7607 11.2446L20.5607 11.5001C20.6052 12.6667 19.783 13.161 19.5886 13.4611C19.3997 13.7666 19.3941 14.1721 19.3941 14.1721C19.3941 14.1721 19.3108 15.3165 18.9775 15.8609C18.6442 16.3997 18.3831 16.4386 17.8221 16.5776C17.2665 16.7108 16.3388 16.022 16.3166 15.9997C16.3333 16.022 16.861 16.7609 17.6109 16.9164C18.3719 17.072 19.083 16.4664 19.3886 15.9554C19.7052 15.4499 19.722 15.0443 19.722 15.0443C19.722 15.0443 19.6163 14.1166 19.833 13.6889C20.0496 13.2667 20.3886 13.1778 20.3886 13.1778C19.3108 14.7665 20.4275 15.8998 20.4275 15.8998L19.8442 16.8498C19.3219 17.6997 18.1998 17.9775 18.1998 17.9775C16.1444 18.3664 15.0889 15.8998 15.0889 15.8998L15.9556 16.8941L16.2332 16.5942C15.9167 16.4165 15.5111 14.8166 15.5111 14.8166C15.5111 14.8166 15.2056 13.2278 14.3612 12.6555C13.8834 12.3334 13.139 12.3779 12.589 12.489L12.6224 12.3667C13.539 11.5445 16.3221 11.8279 16.9221 11.9779C17.5332 12.1446 18.4942 11.8445 18.4942 11.8445L18.3554 12.2333C19.2442 12.0668 20.3774 11.0334 20.3774 11.0334C20.3774 11.0334 21.3829 9.70574 21.2495 8.37253C21.1107 7.03929 19.9385 6.18934 19.9385 6.18934L20.3996 5.93937C19.4553 5.86714 18.5998 4.63389 18.5998 4.63389C18.322 4.24503 17.6887 4.45613 17.6887 4.45613L16.6499 3.75618C16.0166 3.32843 15.5889 3.79506 15.5889 3.79506L15.6555 4.08393C15.6499 4.02282 15.6611 3.9395 15.8277 4.0006C16.1011 4.19418 16.3396 4.43273 16.5333 4.70612L15.6445 4.32836L15.7721 4.62278C16.8554 5.16164 16.8943 6.09491 17.0833 6.40044C17.2665 6.70597 17.6277 6.91707 17.6277 6.91707C17.6277 6.91707 18.622 7.55036 18.9498 8.09477C19.2775 8.64474 19.1831 8.87806 19.0276 9.41694C18.8775 9.9502 17.7609 10.3835 17.7609 10.3835C17.7609 10.3835 18.7109 10.3169 19.233 9.75577C19.7497 9.20025 19.5497 8.31143 19.2442 7.80035C19.082 7.5104 18.8536 7.26294 18.5775 7.07818C18.5775 7.07818 17.6887 6.70597 17.4054 6.31711C17.1276 5.92825 17.2165 5.6005 17.2165 5.6005C18.1276 7.27816 19.7052 6.91152 19.7052 6.91152L20.2774 7.86701C20.7885 8.72251 20.4885 9.79466 20.4885 9.79466C19.8275 11.7001 17.0665 11.3613 17.0665 11.3613L18.3998 11.1279L18.2609 10.7501C17.9388 10.9224 16.2944 10.4724 16.2944 10.4724C16.2944 10.4724 14.6945 9.93905 13.7668 10.3612C13.2335 10.6057 12.9113 11.2502 12.7334 11.7611L12.6446 11.6723C12.3502 10.5058 13.9945 8.32809 14.439 7.9059C14.8889 7.47259 15.0945 6.52821 15.0945 6.52821L15.3833 6.84486C15.6722 6.01158 15.2999 4.56168 15.2999 4.56168C15.2999 4.56168 14.6 3.06178 13.3279 2.51182C12.0502 1.9563 10.7003 2.51182 10.7003 2.51182V2.00073C10.1615 2.75069 8.62267 2.84512 8.62267 2.84512C8.12826 2.88401 8.0116 3.51175 8.0116 3.51175L6.85612 4.02838C6.15616 4.34503 6.3617 4.93387 6.3617 4.93387L6.65614 5.01721C6.60058 4.99498 6.53392 4.93943 6.67279 4.83388C6.87835 4.67834 7.65607 4.60057 7.65607 4.60057L6.87835 5.15052L7.20609 5.18941C8.23381 4.56168 9.09486 4.99498 9.46699 4.99498C9.83369 4.99498 10.2058 4.795 10.2058 4.795C10.2058 4.795 11.2725 4.28391 11.928 4.28391C12.589 4.28391 12.7502 4.47835 13.1612 4.87277C13.5723 5.26718 13.4112 6.41155 13.4112 6.41155C13.4112 6.41155 13.8223 5.57827 13.5779 4.87277C13.3279 4.16726 12.4223 3.8895 11.8057 3.8895C11.1947 3.8895 10.8226 4.08948 10.8226 4.08948C10.8226 4.08948 10.0448 4.63945 9.54477 4.67834C9.05596 4.71722 8.80599 4.47835 8.80599 4.47835C10.7781 4.56168 11.2336 3.06178 11.2336 3.06178H12.3835C13.4112 3.06178 14.2334 3.85062 14.2334 3.85062C15.611 5.3283 13.9834 7.42815 13.9445 7.47259L14.3945 6.25046L13.9834 6.17269C13.9834 6.52821 12.7502 7.67258 12.7502 7.67258C12.7502 7.67258 11.4781 8.72806 11.3947 9.71688C11.3503 10.2835 11.7836 10.8835 12.1557 11.2779L12.0446 11.3112C10.8447 10.978 9.71146 8.48919 9.55591 7.91145C9.39483 7.31704 8.65045 6.66709 8.65045 6.66709L9.08374 6.58931C8.48379 5.93381 6.98388 5.5005 6.98388 5.5005C6.98388 5.5005 5.28401 5.31719 4.14519 6.08935C3.00083 6.86152 2.81195 8.25587 2.81195 8.25587L2.34531 8.00034C2.74528 8.8225 2.05645 10.1446 2.05645 10.1446C1.83424 10.5724 2.33976 10.989 2.33976 10.989C2.33976 10.989 2.28421 11.4612 2.21754 12.2C2.18388 12.3895 2.22376 12.5846 2.32906 12.7457C2.43436 12.9067 2.59712 13.0216 2.78417 13.0667L3.00638 12.8667C2.95638 12.9 2.87861 12.9333 2.85083 12.7612C2.81194 12.5111 3.1397 11.8279 3.1397 11.8279L3.23969 12.7556L3.43969 12.5C3.39524 11.3334 4.21741 10.839 4.41184 10.5391C4.60071 10.2336 4.60627 9.82797 4.60627 9.82797C4.60627 9.82797 4.68959 8.68362 5.02291 8.14476C5.35622 7.60036 5.61732 7.56703 6.18394 7.42259C6.73946 7.28927 7.66162 7.97811 7.68384 8.00034C7.36479 7.5621 6.90968 7.24176 6.38948 7.08929C5.62843 6.92818 4.92291 7.5337 4.61182 8.04477C4.29518 8.55586 4.28408 8.96138 4.28408 8.96138C4.28408 8.96138 4.38406 9.88358 4.17296 10.3058C3.95076 10.7335 3.61745 10.8168 3.61745 10.8168C4.68959 9.23358 3.57301 8.09477 3.57301 8.09477L4.15631 7.15039C4.67849 6.30045 5.80619 6.02269 5.80619 6.02269C7.86161 5.62828 8.91709 8.10033 8.91709 8.10033L8.04492 7.10039L7.76717 7.40592C8.08381 7.5837 8.48934 9.18359 8.48934 9.18359C8.48934 9.18359 8.79488 10.7724 9.63926 11.339C10.1281 11.6723 10.8836 11.6167 11.4336 11.5057L11.4059 11.6056C10.5225 12.4611 7.68384 12.1723 7.07833 12.0167C6.46725 11.8612 5.50621 12.1556 5.50621 12.1556L5.6451 11.7611C4.75626 11.9334 3.62301 12.9666 3.62301 12.9666C3.62301 12.9666 2.61751 14.2943 2.7564 15.6276C2.88972 16.9609 4.06187 17.8108 4.06187 17.8108L3.60078 18.0663C4.54517 18.1385 5.40067 19.3663 5.40067 19.3663C5.67842 19.7551 6.31171 19.544 6.31171 19.544L7.35053 20.2439C7.98382 20.6717 8.41157 20.205 8.41157 20.205L8.3449 19.9162C8.35046 19.9773 8.33936 20.0606 8.1727 19.9996C7.89932 19.8059 7.66076 19.5674 7.46719 19.2941L8.35603 19.6718L8.22824 19.3774C7.14499 18.8384 7.1061 17.9052 6.92278 17.5997C6.73946 17.2886 6.37837 17.0831 6.37837 17.0831C6.37837 17.0831 5.37844 16.4498 5.05069 15.9054C4.72293 15.3554 4.82292 15.1221 4.97292 14.5832C5.1229 14.05 6.2395 13.6167 6.2395 13.6167C6.2395 13.6167 5.28956 13.6833 4.76737 14.2444C4.25074 14.7998 4.45073 15.6886 4.75626 16.1997C5.06735 16.7164 5.42289 16.922 5.42289 16.922C5.42289 16.922 6.31171 17.2997 6.59502 17.6886C6.87279 18.0774 6.78391 18.3997 6.78391 18.3997C5.87285 16.722 4.29518 17.0941 4.29518 17.0941C4.29518 17.0941 4.23963 16.9886 3.723 16.1387C3.21192 15.2832 3.5119 14.2055 3.5119 14.2055C4.17296 12.3001 6.93389 12.6445 6.93389 12.6445L5.60621 12.8722L5.73952 13.2555C6.06174 13.0778 7.70607 13.5333 7.70607 13.5333C7.70607 13.5333 9.30595 14.061 10.2337 13.6444C10.7781 13.3944 11.1002 12.7389 11.2725 12.2278L11.3503 12.3001C11.6835 13.4667 10.0114 15.6665 9.56706 16.0942C9.11152 16.5276 8.90598 17.472 8.90598 17.472L8.62267 17.1553C8.3338 17.9885 8.70044 19.4385 8.70044 19.4385C8.70044 19.4385 9.40039 20.9383 10.6725 21.4883C11.9503 22.0438 13.3057 21.4883 13.3057 21.4883V21.9994C13.839 21.2494 15.3777 21.155 15.3777 21.155C15.8778 21.1161 15.9944 20.4884 15.9944 20.4884L17.1443 19.9717C17.8443 19.655 17.6443 19.0663 17.6443 19.0663L17.3443 18.983C17.3998 19.0051 17.4665 19.0607 17.3332 19.1662C17.1276 19.3218 16.3444 19.3996 16.3444 19.3996L17.1221 18.8496L16.7999 18.8107C15.7721 19.4385 14.9111 19.0051 14.5389 19.0051C14.1668 19.0051 13.8001 19.2051 13.8001 19.2051C13.8001 19.2051 12.728 19.7162 12.0724 19.7162C11.4169 19.7162 11.2503 19.5218 10.8392 19.1274C10.4281 18.7329 10.5947 17.5886 10.5947 17.5886C10.5947 17.5886 10.1837 18.4218 10.4281 19.1274C10.6725 19.8329 11.578 20.1107 12.1946 20.1107C12.8112 20.1107 13.1835 19.9107 13.1835 19.9107C13.1835 19.9107 13.9612 19.3607 14.4556 19.3218C14.95 19.2829 15.1944 19.5218 15.1944 19.5218C13.2224 19.4385 12.7723 20.9383 12.7723 20.9383H11.6225C10.9339 20.8938 10.2813 20.6155 9.77264 20.1496C8.38935 18.6719 10.0225 16.572 10.0614 16.5276L9.60595 17.7496L10.017 17.8274C10.017 17.472 11.2503 16.3276 11.2503 16.3276C11.2503 16.3276 12.528 15.272 12.6058 14.2833C12.6557 13.7166 12.2225 13.1277 11.8502 12.7278L11.9613 12.6944C13.1668 13.0389 14.2945 15.5109 14.4444 16.0887C14.6111 16.6831 15.35 17.333 15.35 17.333L14.9222 17.4108C15.5167 18.0663 17.0165 18.4996 17.0165 18.4996C17.0165 18.4996 18.7165 18.6829 19.8608 17.9107C20.9996 17.133 21.1941 15.7443 21.1941 15.7443L21.6551 15.9997C21.2495 15.1777 21.944 13.8556 21.944 13.8556C22.1662 13.4332 21.6551 13.0111 21.6551 13.0111ZM18.072 4.90055C18.072 4.90055 18.2887 4.78389 18.3276 4.84499L18.5498 5.22275C18.5498 5.22275 18.3109 5.22275 18.072 4.90055ZM8.60045 3.41731C8.60045 3.41731 8.60045 3.18399 8.68377 3.18399H9.13374C9.13374 3.18399 9.01153 3.37842 8.60045 3.41731ZM2.55641 10.4501C2.55641 10.4501 2.34531 10.3335 2.38976 10.2613L2.61751 9.88915C2.61751 9.88915 2.72862 10.089 2.56197 10.4446L2.55641 10.4501ZM5.92841 19.0996C5.92841 19.0996 5.71176 19.2163 5.67287 19.1495L5.45066 18.7718C5.45066 18.7718 5.68398 18.7774 5.92841 19.0996ZM15.4 20.5829C15.4 20.5829 15.4 20.8162 15.3167 20.8162H14.8667C14.8667 20.8162 14.9888 20.6218 15.4 20.5829ZM21.6162 13.7389L21.3829 14.111C21.3829 14.111 21.2718 13.911 21.4385 13.5555C21.4385 13.5555 21.6607 13.6666 21.6162 13.7389Z" fill="white"/>
<path d="M16.0892 17.0606L16.6003 17.3939L16.8281 17.0217L16.3004 16.7217L16.0892 17.0606ZM17.4502 17.3328L17.0392 17.1439L16.7892 17.5495L17.328 17.7605L17.4502 17.3272V17.3328ZM18.1669 17.3216L17.667 17.3605L17.6391 17.7994L18.228 17.7661L18.1725 17.3216H18.1669ZM18.9058 17.055L18.428 17.2883L18.478 17.6772L19.0334 17.3994L18.9058 17.055ZM19.0613 16.9606L19.2057 17.2661L19.5834 16.8884L19.4169 16.6106L19.0613 16.9606ZM20.1168 16.094L19.8723 15.9552L19.5778 16.4272L19.7668 16.6717L20.1168 16.094ZM7.91202 6.93903L7.40094 6.60573L7.17319 6.97792L7.70648 7.2779L7.91202 6.93903ZM6.551 6.66683L6.96209 6.85571L7.21207 6.45018L6.67321 6.23908L6.551 6.67239V6.66683ZM5.83438 6.67795L6.33436 6.63907L6.36212 6.2002L5.77328 6.23353L5.82883 6.67795H5.83438ZM5.09554 6.94459L5.57329 6.71128L5.52329 6.32241L4.96778 6.60018L5.09554 6.94459ZM4.94 7.03904L4.79556 6.73349L4.41781 7.11125L4.58447 7.38901L4.94 7.03904ZM3.88452 7.90564L4.12895 8.04452L4.42337 7.57234L4.24005 7.3279L3.88452 7.90564Z" fill="white"/>
<path d="M12.9722 5.44487C11.5699 5.26146 10.1445 5.49323 8.87255 6.11148L9.16141 6.32258C10.3593 5.77348 11.6905 5.58248 12.9945 5.77262L12.9722 5.45041V5.44487ZM14.8611 17.6773C13.6389 18.2329 12.2723 18.4273 10.9391 18.2162V18.5328C12.3362 18.7392 13.7632 18.5326 15.0443 17.9385L14.8555 17.6773H14.8611ZM5.88386 14.2832L5.57833 14.4053C6.10836 15.683 7.02027 16.7657 8.18926 17.5052V17.1219C7.16222 16.4201 6.3628 15.4335 5.88942 14.2832H5.88386ZM18.5608 12.511C18.4483 13.8061 17.9269 15.0316 17.072 16.0108L17.3887 16.1386C18.2609 15.1101 18.7877 13.8332 18.8941 12.4889L18.5608 12.511ZM15.8332 6.50034V6.88366C16.8625 7.58431 17.664 8.57119 18.1385 9.72237L18.433 9.57797C17.9017 8.31019 16.9944 7.23599 15.8332 6.50034ZM6.60604 7.88914C5.73062 8.93536 5.21111 10.2332 5.1228 11.5945L5.45611 11.5111C5.56105 10.2476 6.05607 9.0479 6.87269 8.07802L6.60604 7.88914Z" fill="white"/>
</svg>

<svg xmlns="http://www.w3.org/2000/svg" width="24" height="24" fill="none" viewBox="0 0 24 24">
    <path fill="#fff" d="M14.067 6.056h.411l.039-.59h-.45zm.411-1.378-.456.117.045.433h.494l-.083-.556zm-.122-.278-.334-.472-.366.278.289.389zm-.54-.628-.533-.316-.244.277.45.278.333-.239zm-1.438-.238.5.122.2-.278-.533-.117-.167.278zm-.244-.034.122-.278h-.694V3.5zm-2.2 14.444h-.411l-.04.588h.45zm-.411 1.377.455-.116-.044-.434h-.49l.079.556zm.122.278.333.472.367-.277-.289-.39zm.539.628.533.317.244-.278-.45-.278-.333.239zm1.439.239-.5-.123-.2.278.533.117.167-.278zm.244.033-.122.278h.7v-.278zm6.544-9.744.205.34.556-.262-.228-.372zm.744-.41.25.405.456-.34-.333-.316zm1.156-.684-.433-.167-.212.434.384.238zm.044-.25.017-.6L20 8.744l-.023.511zM19.85 8.1l.139.466.35.034-.156-.5zm-.372-.706.283.478.311-.033-.344-.578-.25.139zM5.59 13.244l-.2-.339-.556.261.222.372zm-.745.411-.244-.405-.461.338.333.317zm-1.155.683.433.167.211-.433-.383-.24zm-.04.25-.021.6.372.067.028-.511zm.5 1.311-.138-.466-.35-.034.156.5zm.373.7-.283-.477-.311.038.344.578z"/>
    <path fill="#fff" d="M21.655 13.011s.056-.472.128-1.211a.755.755 0 0 0-.567-.867l-.222.2c.05-.033.128-.066.156.106.039.25-.29.933-.29.933l-.1-.927-.2.255c.045 1.167-.777 1.661-.971 1.961-.19.306-.195.711-.195.711s-.083 1.144-.416 1.689c-.334.539-.595.578-1.156.717-.555.133-1.483-.556-1.505-.578.016.022.544.76 1.294.916.76.156 1.472-.45 1.778-.96.316-.506.333-.912.333-.912s-.106-.927.111-1.355c.217-.422.556-.511.556-.511-1.078 1.588.038 2.722.038 2.722l-.583.95c-.522.85-1.644 1.127-1.644 1.127-2.056.39-3.111-2.077-3.111-2.077l.867.994.277-.3c-.316-.178-.722-1.777-.722-1.777s-.305-1.59-1.15-2.161c-.478-.323-1.222-.278-1.772-.167l.033-.122c.917-.823 3.7-.54 4.3-.39.611.168 1.572-.133 1.572-.133l-.139.39c.89-.167 2.022-1.2 2.022-1.2s1.006-1.328.873-2.661c-.14-1.334-1.311-2.184-1.311-2.184l.46-.25c-.944-.072-1.8-1.305-1.8-1.305-.277-.389-.91-.178-.91-.178l-1.04-.7c-.632-.428-1.06.04-1.06.04l.066.288c-.005-.061.006-.144.173-.083.273.193.512.432.705.705l-.889-.378.128.295c1.083.539 1.122 1.472 1.311 1.777.184.306.545.517.545.517s.994.633 1.322 1.178c.328.55.233.783.078 1.322-.15.533-1.267.966-1.267.966s.95-.066 1.472-.627c.517-.556.317-1.445.011-1.956a2.1 2.1 0 0 0-.666-.722s-.89-.372-1.173-.76c-.277-.39-.189-.717-.189-.717.912 1.677 2.49 1.31 2.49 1.31l.571.956c.511.856.211 1.928.211 1.928-.66 1.905-3.421 1.566-3.421 1.566l1.333-.233-.14-.378c-.321.172-1.966-.278-1.966-.278s-1.6-.533-2.527-.11c-.534.244-.856.888-1.034 1.4l-.088-.09c-.295-1.166 1.35-3.344 1.794-3.766.45-.433.656-1.378.656-1.378l.288.317c.29-.833-.083-2.283-.083-2.283s-.7-1.5-1.972-2.05c-1.278-.556-2.628 0-2.628 0V2c-.538.75-2.077.844-2.077.844-.495.039-.611.667-.611.667l-1.156.516c-.7.317-.494.906-.494.906l.294.083c-.055-.022-.122-.078.017-.183.205-.156.983-.233.983-.233l-.778.55.328.038c1.028-.627 1.889-.194 2.261-.194.367 0 .739-.2.739-.2s1.067-.511 1.722-.511c.661 0 .822.194 1.233.589s.25 1.539.25 1.539.411-.834.167-1.54c-.25-.705-1.156-.982-1.772-.982-.611 0-.983.2-.983.2s-.778.55-1.278.588c-.489.04-.739-.2-.739-.2 1.972.084 2.428-1.416 2.428-1.416h1.15c1.027 0 1.85.789 1.85.789 1.377 1.477-.25 3.577-.29 3.622l.45-1.223-.41-.077c0 .355-1.234 1.5-1.234 1.5s-1.272 1.055-1.355 2.044c-.045.566.389 1.166.76 1.56l-.11.034c-1.2-.333-2.334-2.822-2.49-3.4-.16-.594-.905-1.244-.905-1.244l.434-.078c-.6-.655-2.1-1.089-2.1-1.089s-1.7-.183-2.839.59c-1.144.772-1.333 2.166-1.333 2.166L2.345 8c.4.822-.289 2.145-.289 2.145-.222.427.284.844.284.844s-.056.472-.122 1.211a.756.756 0 0 0 .566.867l.222-.2c-.05.033-.127.066-.155-.106-.04-.25.289-.933.289-.933l.1.928.2-.256c-.045-1.167.777-1.661.972-1.96.189-.306.194-.712.194-.712s.084-1.144.417-1.683c.333-.545.594-.578 1.16-.722.556-.134 1.479.555 1.5.577a2.46 2.46 0 0 0-1.294-.91c-.76-.162-1.466.444-1.777.955-.317.51-.328.916-.328.916s.1.923-.111 1.345c-.222.428-.556.51-.556.51 1.073-1.582-.044-2.721-.044-2.721l.583-.945c.522-.85 1.65-1.127 1.65-1.127C7.862 5.628 8.917 8.1 8.917 8.1l-.872-1-.278.306c.317.178.722 1.778.722 1.778s.306 1.588 1.15 2.155c.49.333 1.245.278 1.795.167l-.028.1c-.883.855-3.722.566-4.328.41-.61-.155-1.572.14-1.572.14l.14-.395c-.89.172-2.023 1.206-2.023 1.206s-1.005 1.327-.867 2.66c.134 1.334 1.306 2.184 1.306 2.184l-.461.255c.944.073 1.8 1.3 1.8 1.3.277.39.91.178.91.178l1.04.7c.633.428 1.06-.039 1.06-.039l-.066-.289c.005.061-.006.145-.172.084a3 3 0 0 1-.706-.706l.889.378-.128-.295c-1.083-.539-1.122-1.472-1.305-1.777-.184-.311-.545-.517-.545-.517s-1-.633-1.327-1.178c-.328-.55-.228-.783-.078-1.322.15-.533 1.266-.966 1.266-.966s-.95.066-1.472.627c-.516.556-.316 1.445-.01 1.956.31.516.666.722.666.722s.889.378 1.172.767c.278.388.189.71.189.71-.911-1.677-2.489-1.305-2.489-1.305s-.055-.105-.572-.955c-.511-.856-.211-1.933-.211-1.933.661-1.906 3.422-1.561 3.422-1.561l-1.328.227.134.383c.322-.177 1.966.278 1.966.278s1.6.528 2.528.111c.544-.25.866-.905 1.039-1.416l.077.072c.334 1.167-1.339 3.366-1.783 3.794-.455.434-.661 1.378-.661 1.378l-.283-.317c-.29.833.077 2.284.077 2.284s.7 1.5 1.973 2.05c1.277.555 2.633 0 2.633 0v.51c.533-.75 2.072-.844 2.072-.844.5-.039.616-.667.616-.667l1.15-.516c.7-.317.5-.906.5-.906l-.3-.083c.056.022.122.078-.01.183-.206.156-.99.234-.99.234l.778-.55-.322-.04c-1.028.629-1.889.195-2.261.195s-.739.2-.739.2-1.072.511-1.728.511-.822-.194-1.233-.589c-.41-.394-.244-1.538-.244-1.538s-.411.833-.167 1.538 1.15.984 1.767.984c.616 0 .989-.2.989-.2s.777-.55 1.272-.59c.494-.038.738.2.738.2-1.972-.082-2.422 1.417-2.422 1.417h-1.15a3.03 3.03 0 0 1-1.85-.788c-1.383-1.478.25-3.578.29-3.622l-.456 1.222.411.077c0-.355 1.233-1.5 1.233-1.5s1.278-1.055 1.356-2.044c.05-.566-.383-1.155-.756-1.555l.111-.034c1.206.345 2.333 2.817 2.483 3.395.167.594.906 1.244.906 1.244l-.428.078c.595.655 2.095 1.089 2.095 1.089s1.7.183 2.844-.59c1.139-.777 1.333-2.166 1.333-2.166l.461.256c-.405-.822.289-2.144.289-2.144.222-.423-.289-.845-.289-.845m-3.583-8.11s.217-.117.256-.056l.222.378s-.24 0-.478-.322M8.6 3.417s0-.233.084-.233h.45s-.122.194-.534.233M2.556 10.45s-.21-.116-.166-.189l.228-.372s.11.2-.056.556zm3.372 8.65s-.216.116-.255.05l-.222-.378s.233.005.477.328m9.472 1.483s0 .233-.083.233h-.45s.122-.194.533-.233m6.216-6.844-.233.372s-.111-.2.056-.556c0 0 .222.112.177.184"/>
    <path fill="#fff" d="m16.09 17.06.51.334.228-.372-.528-.3zm1.36.273-.41-.19-.25.406.538.212.122-.434zm.717-.011-.5.038-.028.44.589-.034-.056-.444zm.739-.267-.478.233.05.39.555-.279zm.155-.094.145.305.377-.378-.166-.277zm1.056-.867-.245-.139-.294.472.189.245zM7.912 6.939l-.511-.333-.228.372.533.3zm-1.361-.272.411.189.25-.406-.539-.21-.122.432zm-.717.011.5-.039.028-.439-.589.034.056.444zm-.738.267.477-.234-.05-.389-.555.278zm-.156.094-.144-.306-.378.378.166.278zm-1.055.867.244.139.294-.473-.183-.244zm9.087-2.461a7.23 7.23 0 0 0-4.1.666l.29.212a6.83 6.83 0 0 1 3.832-.55l-.022-.323zm1.89 12.232a6.9 6.9 0 0 1-3.923.54v.316c1.397.206 2.824 0 4.105-.594l-.189-.262zm-8.978-3.394-.306.122a6.7 6.7 0 0 0 2.611 3.1v-.383a6.4 6.4 0 0 1-2.3-2.839zm12.677-1.772a6.13 6.13 0 0 1-1.489 3.5l.317.128a6.43 6.43 0 0 0 1.505-3.65zm-2.728-6.01v.383a6.37 6.37 0 0 1 2.306 2.838l.294-.144a6.7 6.7 0 0 0-2.6-3.078M6.606 7.888a6.42 6.42 0 0 0-1.483 3.706l.333-.084a6.1 6.1 0 0 1 1.417-3.433z"/>
</svg>
